www/assets/icons/grid_goldenratio.svg

<svg xmlns="http://www.w3.org/2000/svg" width="24" height="24" viewBox="0 0 24 24" fill='currentColor'><path d="M22 11V9h-7V2h-2v7h-2V2H9v7H2v2h7v2H2v2h7v7h2v-7h2v7h2v-7h7v-2h-7v-2zm-9 2h-2v-2h2z"/></svg>

<svg width="24" height="24" viewBox="0 0 24 24" xmlns="http://www.w3.org/2000/svg" fill='currentColor'><path d="M22 11V9H15V2H13V9H11V2H9V9H2V11H9V13H2V15H9V22H11V15H13V22H15V15H22V13H15V11H22ZM13 13H11V11H13V13Z"/></svg>
